public/favicon.svg

<svg xmlns="http://www.w3.org/2000/svg" width="120" height="120" fill="none" viewBox="0 0 120 120"><rect width="120" height="120" fill="#3c6387" rx="16"/><path fill="#fff" d="M73.7363 47.659c1.342-.8706 2.6148-1.7032 3.8947-2.5245 3.2484-2.087 6.0001-4.5621 8.3905-7.3279 1.7653-2.0419 3.381-4.1374 4.7922-6.3049 1.699-2.6091 2.715-5.2366 3.0734-7.8867a6.3 6.3 0 0 1 .2653-1.1402c.0395-.1185.2653-.309.4021-.3401.151-.0352.3514.0353.4347.1299.0875.0987.0649.2765.086.4219.5109 3.5913-.5545 7.2884-2.9069 11.0758-1.5861 2.5542-3.278 5.0702-5.4455 7.4338-2.317 2.5287-5.1435 4.4874-8.3185 6.0396-1.4365.7027-2.8533.9468-4.1656.642-.182-.0423-.3288-.1411-.5024-.2187M86.3123 46.8363c-.0522.4347-.0211.9074-.1735 1.2969-.3147.8085-.6181 1.6693-1.1176 2.3424-2.8025 3.779-6.1652 6.8143-10.3816 8.6276-1.8528.7973-3.8016.9511-5.7772.7888-.9623-.079-1.6862-.628-2.286-1.3914-.1989-.254-.4205-.5545-.0931-.8791.2667-.2639.5898-.1256.7211.1044.436.7634 1.1105.6506 1.7653.6689 2.6091.0762 5.0391-.6421 7.3322-1.9346 2.6176-1.4747 4.9826-3.3402 7.1261-5.5203 1.1416-1.16 2.0941-2.4878 2.5696-4.1572.1059.0169.2103.0353.3161.0522zM80.758 80.7681c.3824-.3232.7253-.6266 1.0823-.9116.714-.5687 1.4577-1.0936 2.2846-1.4887.1312-.0621.2695-.1172.4106-.1538.2865-.0734.4981.0917.4925.3866-.0056.3302-.0395.6618-.0409.992 0 .1693.0282.3429.0691.5094.0776.3119.2103.3556.4502.1341.1806-.1679.3513-.3556.4854-.5602.1623-.2484.285-.5221.4177-.7888.0677-.1355.1538-.2399.3175-.2286.1566.0098.2272.1128.261.2596.096.4191.6294.7408 1.0527.6322.1538-.0395.3006-.103.453-.151.1933-.0607.35-.0057.4092.1397s-.0084.2963-.1961.3824c-.7705.3486-1.2827.3429-1.8782-.2173-.0268-.0254-.0579-.048-.103-.0847-.0833.1256-.1496.2554-.2427.3613-.2385.2709-.4587.5701-.7409.7888-.4727.3655-.9793.1947-1.1924-.3669-.1594-.4191-.1637-.8594-.1326-1.3011.0042-.0691.0113-.1368.0212-.2441-.1073.0508-.1863.0833-.2625.1242-1.16.6223-2.1675 1.4464-3.1412 2.3241-.3838.3457-.5545.7451-.6533 1.239-.4727 2.3326-.9737 4.6595-1.7484 6.9159-.2836.8255-.6082 1.6354-1.064 2.3833-.2159.3556-.4572.6929-.7987.9413-.611.4445-1.3067.3047-1.7074-.3415-.3302-.5334-.3613-1.1247-.2766-1.7202.1919-1.3631.7338-2.6063 1.3914-3.7973 1.0442-1.8909 2.286-3.6463 3.7211-5.2649.0705-.0804.1199-.1961.1411-.302.381-1.8372.7056-3.6886 1.2319-5.4934.072-.2484.175-.4911.2865-.7239.0606-.127.2032-.2089.3372-.1397.0903.0465.1482.1693.2032.2667.0184.0338-.007.1001-.0268.1453-.4854 1.1317-.6872 2.3396-.9511 3.5306-.1185.5348-.2215 1.0725-.3302 1.6087-.0113.055-.0155.1115-.0296.2131zm-1.0062 2.0066-.055-.0367c-.0226.0381-.0409.079-.0677.1129-1.0781 1.3589-2.0843 2.7686-2.9196 4.2926-.6167 1.1261-1.1346 2.2945-1.3462 3.5744-.0777.4713-.0777.9426.1608 1.3786.2314.422.6139.5066.9596.175.2455-.2342.4812-.5066.6322-.8057.3415-.6802.6702-1.3731.9299-2.0885.6632-1.8288 1.0823-3.7253 1.4986-5.6205.072-.3259.1383-.6533.2074-.9807zM89.345 78.9886c-.0846-.1115-.1637-.2018-.2272-.3034-.0987-.1567-.0776-.3415.0367-.4361.1186-.0973.2893-.0776.429.0579.0903.0875.175.1806.2653.2766.4008-.2992.786-.5899 1.1769-.8749.1524-.1115.309-.2554.5178-.1454.199.1059.1708.3091.1722.4925.0014.223.0085.4459 0 .6675-.0127.3245-.0945.6279-.3457.9313.484.1284.9313.2978 1.3942.3613 1.2474.1707 2.4384-.0946 3.5574-.635.7479-.3613 1.4577-.8044 2.1731-1.2277.1679-.1002.302-.2653.4361-.4149.1143-.127.2808-.1651.4247-.0677.1397.0945.1848.2808.0705.4177-.1298.1552-.2765.3034-.4402.4191-1.3039.92-2.6826 1.6905-4.2701 2.0009-1.047.2047-2.087.2103-3.1002-.1947-.3768-.151-.769-.2653-1.1402-.429-.2116-.0945-.4021-.2455-.5842-.3923-.1086-.0889-.1778-.0917-.2723.0043-.0522.0522-.1214.0945-.1905.1241-.1637.0734-.3429.017-.4149-.1227-.0734-.144-.0028-.3373.1566-.4219.0551-.0283.1101-.0551.1764-.0875zm1.8387-.6125c-.0197-.0113-.0395-.0225-.0578-.0338-.2724.2074-.5461.4148-.8425.6406.1496.0833.2667.1595.3923.2159.2427.1073.3542.0565.4149-.206.048-.2018.0635-.4106.0931-.6167M82.4532 71.7228c-.0184.2159-.0635.3542-.2413.381-.1651.0254-.2667-.0734-.3161-.2173-.0565-.1665-.1058-.3387-.1383-.5123-.0282-.1495.0212-.2794.1834-.333.1524-.0494.2992.0198.3641.1905.0663.1764.1101.3613.1482.4883zM83.9748 57.6073a2.44 2.44 0 0 0-.9638.3344c-.5546.3344-1.0132.7803-1.4407 1.2587-.9878 1.1063-1.7738 2.3523-2.4667 3.6548-1.9741 3.7084-3.3979 7.6271-4.7625 11.6022-.1439.4205-1.9459 2.1534-2.8448 3.017-.8791.8452-1.8119 1.6326-2.8745 2.2465-1.2446.7211-2.5625 1.1783-4.0287 1.0371-.9539-.0917-1.7625-.4811-2.3566-1.2488-.5955-.7705-.4628-1.8655-1.0908-2.5569-.5094-.5617-.6223 0-.6223 0 .0833.4473.1891.8904.3486 1.3278.3429.9412.8368 1.7837 1.6736 2.3764 1.0752.762 2.2846.8579 3.5376.666 1.2983-.199 2.4526-.7535 3.5236-1.493 1.373-.9468 2.413-1.8401 3.5856-3.0155.1736-.1736.4601-.4558.6294-.6336.0127.0099-.2342 1.0611-.3641 1.6016-.2314.9638-.4431 1.8443-.5489 2.8363-.0945.8876.1157 1.5466.9017 1.4817.0141 0 .3909.0678.4727-.0748.0805-.1397.0325-.3189-.127-.4318-.1058-.0762-.2864-.0564-.4049-.11-.271-.1256-.2145-.4728-.2032-.6407.031-.46.0705-.7493.1693-1.1938.3358-1.5085.9652-4.0301 1.0357-4.1106.549-.6279 1.3547-1.3476 1.9996-2.0235 2.5315-2.6459 5.0447-5.5979 6.9977-8.6953.6802-1.0767 1.0993-1.977 1.5607-3.1694.247-.6378.7225-1.9713.2837-3.1468-.2611-.6985-.8411-.9962-1.6214-.8975zm.5094 2.5259c-.3288 1.0301-.841 1.9727-1.3956 2.8928-1.7004 2.8236-3.6251 5.4892-5.6981 8.049-.6237.7704-1.2742 1.5183-1.9135 2.2761-.0479.0564-.1016.1101-.1524.1637-.086.0889-.062.0367-.0423-.0212.1425-.429.2794-.8594.4276-1.2869 1.1698-3.3796 2.5795-6.6534 4.3406-9.7692.6449-1.1416 1.3702-2.231 2.3057-3.1595.3105-.3076.6689-.5701 1.0259-.8255.151-.1086.3472-.1693.532-.2102.4318-.0946.7084.1157.762.5531.0565.4629-.0536.9031-.1919 1.3378M50.3082 100.848h-.3122c-.0534.058.1224.049.3122 0"/><path fill="#fff" d="M94.1186 19.3392c-.6576-.3133-1.2122-.3626-1.7851.2357-.532.5574-1.1726.9906-1.7413 1.5099-3.8735 3.5517-7.5693 7.3039-11.0519 11.2974-3.9596 4.5409-7.8472 9.1511-11.4258 14.0519-5.8068 7.9544-10.3407 16.6963-13.9306 26.0252-2.0785 5.4004-3.6703 10.9475-4.4887 16.7415-.2964 2.0983-.4812 4.191-.4347 6.2809-.1975.0212-.4205.0451-.6745.072-10.7146 1.1627-16.4338.7874-16.9997-1.1148-.6096-2.0532 3.0833-4.5198 5.3608-5.653.2583-.1284.6125-.3048.8143-.6336.1594-.2596.1975-.5799.1072-.9002-.1115-.398-.412-.7635-.7846-.9526-3.8283-1.9515-12.1003-1.6397-16.3548-.6787a.283.283 0 0 0-.2145.3387c.0338.1538.1877.2483.3386.2145 3.6633-.827 12.1357-1.3251 15.9711.6307.2314.1186.4261.3542.4953.5998.0324.1171.0522.2906-.0452.4487-.1086.1764-.3189.2921-.5842.4233-.6717.3345-6.5349 3.3514-5.6515 6.3247.4953 1.6637 3.5828 2.1999 7.5735 2.1999 3.0677 0 6.6689-.3175 10.033-.6816.4459-.048.81-.0875 1.071-.1129a.282.282 0 0 0 .2442-.2004h.0056c0-.0282.0028-.0564.0028-.0846 0-.0085.0029-.0155.0029-.024 0-.0014 0-.0028-.0015-.0057a33 33 0 0 1 .0494-1.6608c.2272-3.978.961-7.867 2.0377-11.6629 3.2456-11.4442 8.2212-21.9627 14.9197-31.5131 5.4766-7.8091 11.8478-14.7165 18.7862-21.0158 2.7799-2.5245 5.7024-4.8599 8.8887-6.779.6844-.412 1.3899-.7831 2.1773-1.2248-.666-1.2079-1.4929-1.9149-2.715-2.4963z"/></svg>

<svg width="120" height="120" viewBox="0 0 120 120" fill="none" xmlns="http://www.w3.org/2000/svg">
<rect width="120" height="120" rx="16" fill="#3C6387"/>
<path d="M73.7363 47.659C75.0783 46.7884 76.3511 45.9558 77.631 45.1345C80.8794 43.0475 83.6311 40.5724 86.0215 37.8066C87.7868 35.7647 89.4025 33.6692 90.8137 31.5017C92.5127 28.8926 93.5287 26.2651 93.8871 23.615C93.9379 23.241 94.0254 22.8558 94.1524 22.4748C94.1919 22.3563 94.4177 22.1658 94.5545 22.1347C94.7055 22.0995 94.9059 22.17 94.9892 22.2646C95.0767 22.3633 95.0541 22.5411 95.0752 22.6865C95.5861 26.2778 94.5207 29.9749 92.1683 33.7623C90.5822 36.3165 88.8903 38.8325 86.7228 41.1961C84.4058 43.7248 81.5793 45.6835 78.4043 47.2357C76.9678 47.9384 75.551 48.1825 74.2387 47.8777C74.0567 47.8354 73.9099 47.7366 73.7363 47.659Z" fill="white"/>
<path d="M86.3123 46.8363C86.2601 47.271 86.2912 47.7437 86.1388 48.1332C85.8241 48.9417 85.5207 49.8025 85.0212 50.4756C82.2187 54.2546 78.856 57.2899 74.6396 59.1032C72.7868 59.9005 70.838 60.0543 68.8624 59.892C67.9001 59.813 67.1762 59.264 66.5764 58.5006C66.3775 58.2466 66.1559 57.9461 66.4833 57.6215C66.75 57.3576 67.0731 57.4959 67.2044 57.7259C67.6404 58.4893 68.3149 58.3765 68.9697 58.3948C71.5788 58.471 74.0088 57.7527 76.3019 56.4602C78.9195 54.9855 81.2845 53.12 83.428 50.9399C84.5696 49.7799 85.5221 48.4521 85.9976 46.7827C86.1035 46.7996 86.2079 46.818 86.3137 46.8349L86.3123 46.8363Z" fill="white"/>
<path d="M80.758 80.7681C81.1404 80.4449 81.4833 80.1415 81.8403 79.8565C82.5543 79.2878 83.298 78.7629 84.1249 78.3678C84.2561 78.3057 84.3944 78.2506 84.5355 78.214C84.822 78.1406 85.0336 78.3057 85.028 78.6006C85.0224 78.9308 84.9885 79.2624 84.9871 79.5926C84.9871 79.7619 85.0153 79.9355 85.0562 80.102C85.1338 80.4139 85.2665 80.4576 85.5064 80.2361C85.687 80.0682 85.8577 79.8805 85.9918 79.6759C86.1541 79.4275 86.2768 79.1538 86.4095 78.8871C86.4772 78.7516 86.5633 78.6472 86.727 78.6585C86.8836 78.6683 86.9542 78.7713 86.988 78.9181C87.084 79.3372 87.6174 79.6589 88.0407 79.5503C88.1945 79.5108 88.3413 79.4473 88.4937 79.3993C88.687 79.3386 88.8437 79.3936 88.9029 79.539C88.9622 79.6843 88.8945 79.8353 88.7068 79.9214C87.9363 80.27 87.4241 80.2643 86.8286 79.7041C86.8018 79.6787 86.7707 79.6561 86.7256 79.6194C86.6423 79.745 86.576 79.8748 86.4829 79.9807C86.2444 80.2516 86.0242 80.5508 85.742 80.7695C85.2693 81.135 84.7627 80.9642 84.5496 80.4026C84.3902 79.9835 84.3859 79.5432 84.417 79.1015C84.4212 79.0324 84.4283 78.9647 84.4382 78.8574C84.3309 78.9082 84.2519 78.9407 84.1757 78.9816C83.0157 79.6039 82.0082 80.428 81.0345 81.3057C80.6507 81.6514 80.48 82.0508 80.3812 82.5447C79.9085 84.8773 79.4075 87.2042 78.6328 89.4606C78.3492 90.2861 78.0246 91.096 77.5688 91.8439C77.3529 92.1995 77.1116 92.5368 76.7701 92.7852C76.1591 93.2297 75.4634 93.0899 75.0627 92.4437C74.7325 91.9103 74.7014 91.319 74.7861 90.7235C74.978 89.3604 75.5199 88.1172 76.1775 86.9262C77.2217 85.0353 78.4635 83.2799 79.8986 81.6613C79.9691 81.5809 80.0185 81.4652 80.0397 81.3593C80.4207 79.5221 80.7453 77.6707 81.2716 75.8659C81.3436 75.6175 81.4466 75.3748 81.5581 75.142C81.6187 75.015 81.7613 74.9331 81.8953 75.0023C81.9856 75.0488 82.0435 75.1716 82.0985 75.269C82.1169 75.3028 82.0915 75.3691 82.0717 75.4143C81.5863 76.546 81.3845 77.7539 81.1206 78.9449C81.0021 79.4797 80.8991 80.0174 80.7904 80.5536C80.7791 80.6086 80.7749 80.6651 80.7608 80.7667L80.758 80.7681ZM79.7518 82.7747L79.6968 82.738C79.6742 82.7761 79.6559 82.817 79.6291 82.8509C78.551 84.2098 77.5448 85.6195 76.7095 87.1435C76.0928 88.2696 75.5749 89.438 75.3633 90.7179C75.2856 91.1892 75.2856 91.6605 75.5241 92.0965C75.7555 92.5185 76.138 92.6031 76.4837 92.2715C76.7292 92.0373 76.9649 91.7649 77.1159 91.4658C77.4574 90.7856 77.7861 90.0927 78.0458 89.3773C78.709 87.5485 79.1281 85.652 79.5444 83.7568C79.6164 83.4309 79.6827 83.1035 79.7518 82.7761V82.7747Z" fill="white"/>
<path d="M89.345 78.9886C89.2604 78.8771 89.1813 78.7868 89.1178 78.6852C89.0191 78.5285 89.0402 78.3437 89.1545 78.2491C89.2731 78.1518 89.4438 78.1715 89.5835 78.307C89.6738 78.3945 89.7585 78.4876 89.8488 78.5836C90.2496 78.2844 90.6348 77.9937 91.0257 77.7087C91.1781 77.5972 91.3347 77.4533 91.5435 77.5633C91.7425 77.6692 91.7143 77.8724 91.7157 78.0558C91.7171 78.2788 91.7242 78.5017 91.7157 78.7233C91.703 79.0478 91.6212 79.3512 91.37 79.6546C91.854 79.783 92.3013 79.9524 92.7642 80.0159C94.0116 80.1866 95.2026 79.9213 96.3216 79.3809C97.0695 79.0196 97.7793 78.5765 98.4947 78.1532C98.6626 78.053 98.7967 77.8879 98.9308 77.7383C99.0451 77.6113 99.2116 77.5732 99.3555 77.6706C99.4952 77.7651 99.5403 77.9514 99.426 78.0883C99.2962 78.2435 99.1495 78.3917 98.9858 78.5074C97.6819 79.4274 96.3032 80.1979 94.7157 80.5083C93.6687 80.713 92.6287 80.7186 91.6155 80.3136C91.2387 80.1626 90.8465 80.0483 90.4753 79.8846C90.2637 79.7901 90.0732 79.6391 89.8911 79.4923C89.7825 79.4034 89.7133 79.4006 89.6188 79.4966C89.5666 79.5488 89.4974 79.5911 89.4283 79.6207C89.2646 79.6941 89.0854 79.6377 89.0134 79.498C88.94 79.354 89.0106 79.1607 89.17 79.0761C89.2251 79.0478 89.2801 79.021 89.3464 78.9886H89.345ZM91.1837 78.3761C91.164 78.3648 91.1442 78.3536 91.1259 78.3423C90.8535 78.5497 90.5798 78.7571 90.2834 78.9829C90.433 79.0662 90.5501 79.1424 90.6757 79.1988C90.9184 79.3061 91.0299 79.2553 91.0906 78.9928C91.1386 78.791 91.1541 78.5822 91.1837 78.3761Z" fill="white"/>
<path d="M82.4532 71.7228C82.4348 71.9387 82.3897 72.077 82.2119 72.1038C82.0468 72.1292 81.9452 72.0304 81.8958 71.8865C81.8393 71.72 81.79 71.5478 81.7575 71.3742C81.7293 71.2247 81.7787 71.0948 81.9409 71.0412C82.0933 70.9918 82.2401 71.061 82.305 71.2317C82.3713 71.4081 82.4151 71.593 82.4532 71.72V71.7228Z" fill="white"/>
<path d="M83.9748 57.6073C83.622 57.6524 83.3073 57.7639 83.011 57.9417C82.4564 58.2761 81.9978 58.722 81.5703 59.2004C80.5825 60.3067 79.7965 61.5527 79.1036 62.8552C77.1295 66.5636 75.7057 70.4823 74.3411 74.4574C74.1972 74.8779 72.3952 76.6108 71.4963 77.4744C70.6172 78.3196 69.6844 79.107 68.6218 79.7209C67.3772 80.442 66.0593 80.8992 64.5931 80.758C63.6392 80.6663 62.8306 80.2769 62.2365 79.5092C61.641 78.7387 61.7737 77.6437 61.1457 76.9523C60.6363 76.3906 60.5234 76.9523 60.5234 76.9523C60.6067 77.3996 60.7125 77.8427 60.872 78.2801C61.2149 79.2213 61.7088 80.0638 62.5456 80.6565C63.6208 81.4185 64.8302 81.5144 66.0832 81.3225C67.3815 81.1235 68.5358 80.569 69.6068 79.8295C70.9798 78.8827 72.0198 77.9894 73.1924 76.814C73.366 76.6404 73.6525 76.3582 73.8218 76.1804C73.8345 76.1903 73.5876 77.2415 73.4577 77.782C73.2263 78.7458 73.0146 79.6263 72.9088 80.6183C72.8143 81.5059 73.0245 82.1649 73.8105 82.1C73.8246 82.1 74.2014 82.1678 74.2832 82.0252C74.3637 81.8855 74.3157 81.7063 74.1562 81.5934C74.0504 81.5172 73.8698 81.537 73.7513 81.4834C73.4803 81.3578 73.5368 81.0106 73.5481 80.8427C73.5791 80.3827 73.6186 80.0934 73.7174 79.6489C74.0532 78.1404 74.6826 75.6188 74.7531 75.5383C75.3021 74.9104 76.1078 74.1907 76.7527 73.5148C79.2842 70.8689 81.7974 67.9169 83.7504 64.8195C84.4306 63.7428 84.8497 62.8425 85.3111 61.6501C85.5581 61.0123 86.0336 59.6788 85.5948 58.5033C85.3337 57.8048 84.7537 57.5071 83.9734 57.6058L83.9748 57.6073ZM84.4842 60.1332C84.1554 61.1633 83.6432 62.1059 83.0886 63.026C81.3882 65.8496 79.4635 68.5152 77.3905 71.075C76.7668 71.8454 76.1163 72.5933 75.477 73.3511C75.4291 73.4075 75.3754 73.4612 75.3246 73.5148C75.2386 73.6037 75.2626 73.5515 75.2823 73.4936C75.4248 73.0646 75.5617 72.6342 75.7099 72.2067C76.8797 68.8271 78.2894 65.5533 80.0505 62.4375C80.6954 61.2959 81.4207 60.2065 82.3562 59.278C82.6667 58.9704 83.0251 58.7079 83.3821 58.4525C83.5331 58.3439 83.7293 58.2832 83.9141 58.2423C84.3459 58.1477 84.6225 58.358 84.6761 58.7954C84.7326 59.2583 84.6225 59.6985 84.4842 60.1332Z" fill="white"/>
<path d="M50.3082 100.848H49.996C49.9426 100.906 50.1184 100.897 50.3082 100.848Z" fill="white"/>
<path d="M94.1186 19.3392C93.461 19.0259 92.9064 18.9766 92.3335 19.5749C91.8015 20.1323 91.1609 20.5655 90.5922 21.0848C86.7187 24.6365 83.0229 28.3887 79.5403 32.3822C75.5807 36.9231 71.6931 41.5333 68.1145 46.4341C62.3077 54.3885 57.7738 63.1304 54.1839 72.4593C52.1054 77.8597 50.5136 83.4068 49.6952 89.2008C49.3988 91.2991 49.214 93.3918 49.2605 95.4817C49.063 95.5029 48.84 95.5268 48.586 95.5537C37.8714 96.7164 32.1522 96.3411 31.5863 94.4389C30.9767 92.3857 34.6696 89.9191 36.9471 88.7859C37.2054 88.6575 37.5596 88.4811 37.7614 88.1523C37.9208 87.8927 37.9589 87.5724 37.8686 87.2521C37.7571 86.8541 37.4566 86.4886 37.084 86.2995C33.2557 84.348 24.9837 84.6598 20.7292 85.6208C20.5754 85.6547 20.4808 85.8071 20.5147 85.9595C20.5485 86.1133 20.7024 86.2078 20.8533 86.174C24.5166 85.347 32.989 84.8489 36.8244 86.8047C37.0558 86.9233 37.2505 87.1589 37.3197 87.4045C37.3521 87.5216 37.3719 87.6951 37.2745 87.8532C37.1659 88.0296 36.9556 88.1453 36.6903 88.2765C36.0186 88.611 30.1554 91.6279 31.0388 94.6012C31.5341 96.2649 34.6216 96.8011 38.6123 96.8011C41.68 96.8011 45.2812 96.4836 48.6453 96.1195C49.0912 96.0715 49.4553 96.032 49.7163 96.0066C49.8349 95.9953 49.928 95.9135 49.9605 95.8062H49.9661C49.9661 95.778 49.9689 95.7498 49.9689 95.7216C49.9689 95.7131 49.9718 95.7061 49.9718 95.6976C49.9718 95.6962 49.9718 95.6948 49.9703 95.6919C49.9732 95.1402 49.9887 94.5856 50.0197 94.0311C50.2469 90.0531 50.9807 86.1641 52.0574 82.3682C55.303 70.924 60.2786 60.4055 66.9771 50.8551C72.4537 43.046 78.8249 36.1386 85.7633 29.8393C88.5432 27.3148 91.4657 24.9794 94.652 23.0603C95.3364 22.6483 96.0419 22.2772 96.8293 21.8355C96.1633 20.6276 95.3364 19.9206 94.1143 19.3392H94.1186Z" fill="white"/>
</svg>
